X: 011109
T: As I Went Out Upon the Ice
S: "Johnny O'Leary of Sliabh Luachra" (#52)
Z: B.Black
L: 1/8
M: 2/4
Q: 290
R: polka
K: Ador
gf|eA BA|e2 AB/d/|eA B/c/B/A/|G2 g2|
eA BA|eA B/c/B/A/|G>e dB|1 A2 :|2 A2 A2 ||
e2 a>b|ag ed|Bd ef|g2 fg/f/|
